X:1
T:De profundis - Gluck
T:James Gibb editions
T:#
%%score [ 1 2 3 4 ]
L:1/8
Q:1/4=100
M:4/4
K:F
V:1 treble nm="Soprano" snm="S"
V:2 treble nm="Alto" snm="A"
V:3 treble-8 nm="Tenor" snm="T"
V:4 bass nm="Bass" snm="B"
V:1
"^Adagio" D4 D4 | D4 ^C2 E2 |"^De profundis" E4 D2 z2 | z8 | G6 B2 | B4 A2 A2 | A2 A2 A2 A2 | %7
w: De pro-|fun- dis cla-|ma- vi,||de pro-|fun- dis cla-|ma- vi ad te|
 B6 B2 |"^Christoph Willibald Gluck\n(1714-1787)" A4 z4 |[M:4/4] A3 A B2 d2 | _e2 c2 A2 G2 | %11
w: Do- mi-|ne,|Do- mi- ne, ex-|au- di vo- cem|
 ^F4 G2 z2 | z8 | =B3 B c2 !courtesy!=e2 | f2 d2 =B2 A2 | ^G4 A2 z2 | !courtesy!_B3 B A2 z2 | %17
w: me- am,||Do- mi- ne, ex-|au- di vo- cem|me- am,|Do- mi- ne,|
 G3 G F2 A2 | d4 d4 | d4 d4 | d8 | ^c4 z4 | z8 | z8 | z8 | z4 z2 ^c2 | d2 d2 d2 d2 | d3 d d2 z2 | %28
w: Do- mi- ne, ex-|au- di|vo- cem|me-|am.||||cla-|ma- vi ad te|Do- mi- ne,|
 z8 | =c3 c c2 c2 | c2 c2 c2 =B2 | (c4 =B4) | A4 A2 A2 | _B4 B4 | B2 B2 B2 B2 | B8 | A4 z2 A2 | %37
w: |Do- mi- ne, ex-|au- di vo- cem|me\- *|am. Fi- ant|au- res|tu- ae in- ten-|den-|tes in|
 A2 A2 A2 A2 | G2 A2 B2 =B2 | c8 | =B4 z2 B2 | ^c4 c4 | d2 d2 d2 d2 | f6 d2 | (d4 ^c4) | d4 z2 D2 | %46
w: vo- cem de- pre-|ca- ti- o- nis|me-|ae. in|vo- cem|de- pre- ca- ti-|o- nis|me\- *|ae. Et|
 E2 E2 ^F2 FF | G3 G A2 A2 | B2 B2 =B2 B2 | c4 d4 | _e2 d2 c2 _B2 | A2 A2 A2 A2 | G4 ^F4 | %53
w: i- pse re- di- met|I- sra- el ex|om- ni- bus i-|ni- qui-|ta- ti- bus, ex|om- ni- bus i-|ni- qui-|
 G6 !courtesy!=F_E |[Q:1/4=97] D8- |[Q:1/4=92] D8 |[Q:1/4=87] D8 |[Q:1/4=85] D8 |] %58
w: ta- ti- bus|e\-|||ius.|
V:2
 A,4 B,4 | B,4 B,2 B,2 | A,4 A,2 z2 | F4 F4 | F4 E2 G2 | G4 F2 A2 | G2 F2 E2 F2 | G6 G2 | ^F4 z4 | %9
w: De pro-|fun- dis cla-|ma- vi,|de pro-|fun- dis cla-|ma- vi, cla-|ma- vi ad te|Do- mi-|ne,|
[M:4/4] z8 | z4 z2 _E2 | _E4 D2 A2 | B2 A2 G2 =F2 | E4 E2 z2 | z4 z2 F2 | F4 E2 A2 | A2 G2 G2 F2 | %17
w: |ex-|au- di, ex-|au- di vo- cem|me- am,|ex-|au- di, ex-|au- di vo- cem|
 (F2 E2) F2 z2 | z2 A2 ^G2 A2 | (=B2 A2) (^G2 A2) | =B8 | A4 z4 | z8 | z8 | z4 E2 E2 | A4 A2 A2 | %26
w: me\- * am,|ex- au- di|vo\- * cem *|me-|am.|||De pro-|fun- dis cla-|
 A2 A2 ^G2 A2 | =B3 B B2 z2 | z8 | A3 A A2 A2 | A2 A2 A2 A2 | (A4 ^G4) | A4 A2 A2 | %33
w: ma- vi ad te|Do- mi- ne,||Do- mi- ne, ex-|au- di vo- cem|me\- *|am. Fi- ant|
 !courtesy!=G4 G4 | G2 G2 F2 F2 | G8 | G4 z2 G2 | ^F2 F2 F2 F2 | G2 ^F2 G2 G2 | G8 | G4 z2 G2 | %41
w: au- res|tu- ae in- ten-|den-|tes in|vo- cem de- pre-|ca- ti- o- nis|me-|ae, in|
 G4 G4 | A2 A2 B2 B2 | =B6 B2 | A8 | A4 z2 D2 | ^C2 C2 =C2 CC | B,3 D D2 D2 | D2 G2 G2 G2 | G4 G4 | %50
w: vo- cem|de- pre- ca- ti-|o- nis|me-|ae. Et|i- pse re- di- met|I- sra- el ex|om- ni- bus i-|ni- qui-|
 G8- | G4 ^F4 | G2 D2 C2 C2 | B,4 B,4 | A,4 B,4 | C4 B,2 A,2 | B,8 | A,8 |] %58
w: ta\-|* ti-|bus, ex om- ni-|bus i-|ni- qui-|ta- ti- bus|e-|ius.|
V:3
 F4 F4 | G4 G2 G2 | G4 F2 z2 | d4 d4 | c4 c2 c2 | c4 c2 c2 | ^c2 d2 e2 d2 | d6 d2 | d4 z4 | %9
w: De pro-|fun- dis cla-|ma vi,|de pro-|fun- dis cla-|ma- vi, cla-|ma- vi ad te|Do- mi-|ne,|
[M:4/4][K:treble-8] z8 | z8 | A3 A B2 d2 | d2 d2 d2 d2 | d4 c2 z2 | z8 | =B3 B c2 e2 | %16
w: ||Do- mi- ne, ex-|au- di vo- cem|me- am,||Do- mi- ne, ex-|
 f2 e2 e2 d2 | (d2 e2) A2 f2 | f4 f4 | f4 f4 | (f4 e4) | e4 z4 | z8 | A2 A2 f4 | ^G2 e2 c2 A2 | %25
w: au- di voc- em|me\- * am, ex-|au- di|vo- cem|me\- *|am.||De pro- fun-|dis cla- ma- vi,|
 z4 z2 e2 | d2 d2 =B2 A2 | ^G3 G G2 z2 | z4 z2 e2 | e4 e4 | (d4 e2) ^f2 | (e6 d2) | c4 c2 c2 | %33
w: cla-|ma- vi ad te|Do- mi- ne,|ex-|au- di|vo\- * cem|me\- *|am. Fi- ant|
 c4 c4 | c2 c2 d2 d2 | e8 | e4 z2 e2 | _e2 e2 d2 d2 | d2 d2 d2 =f2 | _e8 | d4 z2 d2 | =e4 e4 | %42
w: au- res|tu- ae in- ten-|den-|tes in|vo- cem de- pre-|ca- ti- o- nis|me-|ae, in|vo- cem|
 f2 f2 e2 e2 | d6 f2 | (f4 e4) | f4 z2 ^F2 | G2 G2 A2 AA | B3 B ^F4 | z8 | z8 | z2 =B2 c2 d2 | %51
w: de- pre- ca- ti-|o- nis|me\- *|ae. Et|i- pse re- di- met|I- sra- el|||ex om- ni-|
 =e2 e2 d2 c2 | _B4 A4 | G4 G4 | ^F4 G4 | A4 G2 ^F2 | G8 | ^F8 |] %58
w: bus i- ni- qui-|ta- ti-|bus, i-|ni- qui-|ta- ti- bus|e-|ius.|
V:4
 D,4 D,4 | E,4 E,2 ^C,2 | D,4 D,2 z2 | z8 | z4 z2 E,2 | F,4 F,2 F,2 | E,2 D,2 ^C,2 D,2 | G,6 G,2 | %8
w: De pro-|fun- dis cla-|ma- vi,||cla-|ma- vi, cla-|ma- vi ad te|Do- mi-|
 D,4 z4 |[M:4/4] z8 | z8 | C,3 C, B,,2 ^F,2 | G,2 A,2 B,2 A,2 | ^G,4 A,2 z2 | z8 | %15
w: ne,|||Do- mi- ne, ex-|au- di vo- cem|me- am,||
 D,3 D, C,2 ^C,2 | D,2 E,2 ^C,2 D,2 | (=B,,2 ^C,2) D,2 z2 | z2 D2 =B,2 A,2 | %19
w: Do- mi- ne, ex-|au- di voc- em|me\- * am,|ex- au- di|
 (^G,2 A,2) (=B,2 A,2) | ^G,8 | A,4 D,2 D,2 | B,4 ^C,2 A,2 | F,2 D,2 z2 D,2 | E,4 A,,2 z2 | %25
w: vo\- * cem *|me-|am. De pro-|fun- dis cla-|ma- vi, cla-|ma- vi|
 z4 z2 G,2 | F,2 F,2 F,2 F,2 | E,3 E, E,2 z2 | z4 z2 ^G,2 | A,4 =G,4 | (^F,4 E,2) ^D,2 | E,8 | %32
w: cla-|ma- vi ad te|Do- mi- ne,|ex-|au- di|vo\- * cem|me-|
 A,,4 A,2 A,2 | E,4 E,4 | E,2 E,2 D,2 D,2 | ^C,8 | ^C,4 z2 C,2 | !courtesy!=C,2 C,2 C2 C2 | %38
w: am. Fi- ant|au- res|tu- ae in- ten-|den-|tes in|vo- cem de- pre-|
 B,2 A,2 G,2 G,2 | G,8 | G,4 z2 F,2 | E,4 E,4 | D,2 F,2 G,2 G,2 | ^G,6 G,2 | A,8 | D,4 z2 D,2 | %46
w: ca- ti- o- nis|me-|ae, in|vo- cem|de- pre- ca- ti-|o- nis|me-|ae. Et|
 D,2 D,2 D,2 D,D, | D,3 D, D,2 D,2 | G,4 =F,4 | _E,2 E,E, =B,,2 B,,2 | C,2 D,2 _E,2 D,2 | %51
w: i- pse re- di- met|I- sra- el, et|i- pse|re- di- met I- sra-|el ex om- ni-|
 ^C,2 C,2 D,2 D,2 | D,8- | D,8 | D,8 | D,4 D,2 D,2 | D,8 | D,8 |] %58
w: bus i- ni- qui-|ta\-|||* ti- bus|e-|ius.|

